X: 22796
T: Lanigan's Ball
R: jig
M: 6/8
K: Eminor
|:E2E G2A|B2A B^cd|D2D F2G|ABA AFD|
E2E G2A|B2A B^cd|edB cBA|1 B2E E2D:|2 B2E E3||
|:e2f g2e|fag fed|e2f gfe|f3 B3|
e2f g2e|fag fed|edB cBA|1 B2E E3:|2 B2E E2D||

